!!!COM: Haydn, Franz Joseph
!!!OTL: String Quartet in B-flat major
!!!OPS: Opus 1
!!!ONM: No. 1
!!!OMD: Adagio
!!!OMV: 3
!!!SCT: H III:1
!!!SCA: Thematisch-bibliographisches Werkevererzeichnis (A. van Hoboken)
!!!YOR: Bremner Edition, 1772
!!!ENC: Frances Bennion
!!!CDT: 1732/3/31/-1809/5/31/
!!!CNT: Oesterreich
!!!YEC: Copyright (c) 1994, 2000 Center for Computer Assisted Research in the Humanities
!!!YEM: Rights to all derivative editions reserved.
!!!YEM: Refer to licensing agreement for further details.
!!!YEN: United States of America
**kern	**kern	**kern	**kern
*k[b-e-a-]	*k[b-e-a-]	*k[b-e-a-]	*k[b-e-a-]
*E-:	*E-:	*E-:	*E-:
*clefF4	*clefC3	*clefF	*clefF
*M4/4	*M4/4	*M4/4	*M4/4
[1E-	1r	2r	2r
.	.	2c	2a-
=2	=2	=2	=2
1E-_	2r	2.B-	4a-
.	.	.	4g
.	[2e-	.	2cc
.	.	4A-	.
=3	=3	=3	=3
1E-_	2.e-]	4A-	2b-
.	.	4G	.
.	.	4c	4b-
.	4f	4d	4a-
=4	=4	=4	=4
2E-]	2B-	2e-	2g
2r	2r	2r	2r
=5	=5	=5	=5
16E-	16e-	16g	4bb-
16E-	16e-	16g	.
16E-	16e-	16g	.
16E-	16e-	16g	.
16E-	16e-	16g	8gg
16E-	16e-	16g	.
16E-	16e-	16g	8ee-
16E-	16e-	16g	.
16BB-	16f	16a-	8.dd
16BB-	16f	16a-	.
16BB-	16f	16a-	.
16BB-	16d	16a-	32ee-
.	.	.	32ff
16E-	16e-	16g	4ee-
16E-	16e-	16g	.
16E-	16e-	16g	.
16E-	16e-	16g	.
=6	=6	=6	=6
16A-	16e-	16cc	4ccc
16A-	16e-	16cc	.
16A-	16e-	16cc	.
16A-	16e-	16cc	.
16A-	16f	16cc	16bb-
16A-	16f	16cc	16aa-
16A-	16f	16cc	16gg
16A-	16f	16cc	16ff
16G	16f	16b-	4bb-
16G	16f	16b-	.
16G	16f	16b-	.
16G	16f	16b-	.
16G	16e-	16b-	8eee-
16G	16e-	16b-	.
16E-	16e-	16b-	8g
16E-	16e-	16b-	.
=7	=7	=7	=7
16BB-	16B-	16g	4b-
16BB-	16B-	16g	.
16BB-	16B-	16g	.
16BB-	16B-	16g	.
16BB-	16B-	16f	4a-
16BB-	16B-	16f	.
16BB-	16B-	16f	.
16BB-	16B-	16f	.
16E-	16B-	16e-	4g
16E-	16B-	16e-	.
16E-	16B-	16e-	.
16E-	16B-	16e-	.
16E-	16B-	16g	4r
16E-	16B-	16g	.
16E-	16B-	16g	.
16E-	16B-	16g	.
=8	=8	=8	=8
16E-	16g	16b-	4ee-
16E-	16g	16b-	.
16E-	16g	16b-	.
16E-	16g	16b-	.
16E-	16g	16b-	8gg
16E-	16g	16b-	.
16E-	16g	16b-	8bb-
16E-	16g	16b-	.
16D	16f	16b-	8bb-
16D	16f	16b-	.
16D	16f	16b-	32bb-
.	.	.	32aa
16D	16f	16b-	32bb-
.	.	.	32ccc
16D	16f	16b-	8ddd
16D	16f	16b-	.
16D	16f	16b-	8r
16D	16f	16b-	.
=9	=9	=9	=9
16C	16e-	16b-	4ee-
16C	16e-	16b-	.
16C	16e-	16b-	.
16C	16e-	16b-	.
16F	16e-	16a	16eee-
16F	16e-	16a	16ccc
16F	16e-	16c	16aa
16F	16a	16c	16ee-
16B-	16b-	16c	4ee-
16B-	16b-	16c	.
16B-	16b-	16c	.
16B-	16b-	16c	.
16BB-	16B-	16B-	4dd
16BB-	16B-	16B-	.
16BB-	16B-	16B-	.
16BB-	16B-	16B-	.
=10	=10	=10	=10
16D	16f	16b-	4ff
16D	16f	16b-	.
16D	16f	16b-	.
16D	16f	16b-	.
16D	16f	16b-	8bb-
16D	16f	16b-	.
16D	16f	16b-	8aa-
16D	16f	16b-	.
16E-	16g	16b-	16gg
16E-	16g	16b-	16gg
16E-	16g	16b-	16ff#
16E-	16g	16b-	16gg
16E-	16g	16b-	16r
16E-	16g	16b-	16bb-
16E-	16g	16b-	16aa
16E-	16g	16b-	16bb-
=11	=11	=11	=11
16E-	16g	16b-	16r
16E-	16g	16b-	16eee-
16E-	16g	16b-	16ddd
16E-	16g	16b-	16eee-
16E-	16g	16b-	4ggg
16E-	16g	16b-	.
16E-	16g	16b-	.
16E-	16e-	16b-	.
16D	16f	16b-	16r
16D	16f	16b-	16ff
16D	16f	16b-	16ee
16D	16f	16b-	16ff
16D	16f	16b-	16r
16D	16f	16b-	16bb-
16D	16f	16b-	16aa
16D	16f	16b-	16bb-
=12	=12	=12	=12
16D	16f	16b-	16r
16D	16f	16b-	16ddd
16D	16f	16b-	16ccc
16D	16f	16b-	16ddd
16D	16f	16b-	8fff
16D	16f	16b-	.
16D	16f	16b-	8.r
16D	16d	16b-	.
16C	16e-	16b-	.
16C	16e-	16b-	16ee-
16C	16e-	16b-	16dd
16C	16e-	16b-	16ee-
16FF	16e-	16a	16r
16FF	16e-	16a	16gg
16FF	16d	16a	16ff
16FF	16c	16a	16ee-
=13	=13	=13	=13
16BB-	16d	16b-	16r
16BB-	16d	16b-	16dd
16BB-	16d	16b-	16cc#
16BB-	16d	16b-	16dd
16BB-	16d	16b-	16r
16BB-	16d	16b-	16ff
16BB-	16d	16b-	16ee-
16BB-	16d	16b-	16dd
16E-	16g	16cc	16r
16E-	16g	16cc	16cc
16E-	16g	16cc	16b
16E-	16g	16cc	16cc
16E	16e	16c	8.gg
16E	16e	16c	.
16E	16e	16c	.
16E	16e	16c	16b-
=14	=14	=14	=14
16F	16f	16c	4b-
16F	16f	16c	.
16F	16f	16c	.
16F	16f	16c	.
16FF	16F	16c	4a
16FF	16F	16c	.
16FF	16F	16c	.
16FF	16F	16c	.
16F	16A	16c	2e-
16F	16A	16c	.
16F	16A	16c	.
16F	16A	16c	.
16F	16A	16c	.
16F	16A	16c	.
16F	16A	16c	.
16F	16A	16c	.
=15	=15	=15	=15
16B-	16B-	16B-	4d
16B-	16B-	16B-	.
16B-	16B-	16B-	.
16B-	16B-	16B-	.
16D	16f	16b-	4bb-
16D	16f	16b-	.
16D	16f	16b-	.
16D	16f	16b-	.
16E-	16g	16b-	4c
16E-	16g	16b-	.
16E-	16g	16b-	.
16E-	16g	16b-	.
16F	16c	16a	4eee-
16F	16c	16a	.
16F	16c	16a	.
16F	16c	16a	.
=16	=16	=16	=16
16B-	16B-	16b-	8ddd
16B-	16B-	16b-	.
16B-	16B-	16b-	32fff
.	.	.	32ddd
16B-	16B-	16b-	32ccc
.	.	.	32bb-
16F	16f	16b-	4ccc
16F	16f	16b-	.
16F	16f	16a	.
16F	16f	16a	.
16BB-	16B-	16b-	4bb-
16BB-	16B-	16b-	.
16BB-	16B-	16b-	.
16BB-	16B-	16b-	.
16BB-	16B-	16e-	8.gg
16BB-	16B-	16e-	.
16BB-	16B-	16e-	.
16BB-	16e-	16c	16aa
=17	=17	=17	=17
16BB-	16d	16d	16bb-
16BB-	16B-	16d	16ff
16BB-	16B-	16c	16ee-
16BB-	16B-	16B-	16dd
16BB-	16B-	16e-	8.gg
16BB-	16B-	16e-	.
16BB-	16B-	16d	.
16BB-	16e-	16c	16aa
16BB-	16d	16d	16bb-
16BB-	16B-	16b-	16ff
16BB-	16B-	16b-	16dd
16BB-	16B-	16b-	16b-
16FF	16F	16b-	4cc
16FF	16F	16b-	.
16FF	16F	16a	.
16FF	16F	16a	.
=18	=18	=18	=18
16BB-	16B-	16b-	4b-
16BB-	16d	16b-	.
16BB-	16d	16b-	.
16BB-	16d	16b-	.
16G	16d	16b-	2.r
16G	16d	16b-	.
16G	16d	16b-	.
16G	16d	16b-	.
16E-	16c	16b-	.
16E-	16c	16b-	.
16E-	16c	16b-	.
16E-	16c	16b-	.
16F	16c	16a	.
16F	16c	16a	.
16F	16c	16a	.
16F	16c	16a	.
=19	=19	=19	=19
16BB-	16B-	16b-	4ff
16BB-	16B-	16d	.
16BB-	16B-	16d	.
16BB-	16B-	16d	.
16BB-	16B-	16d	8dd
16BB-	16B-	16d	.
16BB-	16B-	16d	8b-
16BB-	16B-	16d	.
16F	16c	16e-	8.a
16F	16c	16e-	.
16F	16c	16e-	.
16F	16A	16e-	32b-
.	.	.	32cc
16BB-	16B-	16d	4b-
16BB-	16B-	16d	.
16BB-	16B-	16d	.
16BB-	16B-	16d	.
=20	=20	=20	=20
16BB-	16d	16f	16aa-
16BB-	16d	16f	16ff
16BB-	16d	16f	16dd
16BB-	16d	16f	16b-
16BB-	16d	16f	16a-
16BB-	16d	16f	16f
16BB-	16d	16f	16d
16BB-	16d	16f	16A-
16E-	16e-	16f	4A-
16E-	16e-	16f	.
16E-	16e-	16f	.
16E-	16e-	16f	.
16E-	16E-	16e-	4G
16E-	16E-	16e-	.
16E-	16E-	16e-	.
16E-	16E-	16e-	.
=21	=21	=21	=21
16E-	16g	16b-	4dd-
16E-	16g	16b-	.
16E-	16g	16b-	.
16E-	16g	16b-	.
16E-	16g	16b-	8dd-
16E-	16g	16b-	.
16E-	16g	16b-	8dd-
16E-	16g	16b-	.
16E-	16g	16b-	4bb-
16E-	16g	16b-	.
16E-	16g	16b-	.
16E-	16g	16b-	.
16E-	16g	16b-	4e-
16E-	16g	16b-	.
16E-	16g	16b-	.
16E-	16g	16b-	.
=22	=22	=22	=22
16E-	16g	16b-	8.ddd-
16E-	16g	16b-	.
16E-	16g	16b-	.
16E-	16g	16b-	16bb-
16E-	16g	16b-	8.fff
16E-	16g	16b-	.
16E-	16g	16b-	.
16E-	16g	16b-	16ddd-
16A-	16e-	16b-	4ddd-
16A-	16e-	16b-	.
16A-	16e-	16b-	.
16A-	16e-	16b-	.
16AA-	16e-	16a-	8ccc
16AA-	16e-	16a-	.
16AA-	16e-	16a-	8r
16AA-	16e-	16a-	.
=23	=23	=23	=23
16A-	16e-	16cc	4ccc
16A-	16e-	16cc	.
16A-	16e-	16cc	.
16A-	16e-	16cc	.
16A-	16e-	16cc	8A-
16A-	16e-	16cc	.
16A-	16e-	16a-	8ccc
16A-	16e-	16a-	.
16G	16e-	16b-	4bb-
16G	16e-	16b-	.
16G	16e-	16b-	.
16G	16e-	16b-	.
16G	16e-	16b-	8G
16G	16e-	16b-	.
16G	16e-	16g	8bb-
16G	16e-	16g	.
=24	=24	=24	=24
16D	16f	16a-	8.b-
16D	16f	16a-	.
16D	16f	16a-	.
16D	16f	16a-	48dd
.	.	.	48cc
.	.	.	48b-
16D	16B-	16f	8aa-
16D	16B-	16f	.
16E-	16B-	16e-	8gg
16E-	16B-	16e-	.
16B-	16B-	16d	8ff
16B-	16d	16b-	.
16B-	16d	16b-	4.r
16B-	16d	16b-	.
16BB-	16d	16b-	.
16BB-	16d	16b-	.
16BB-	16d	16b-	.
16BB-	16d	16b-	.
=25	=25	=25	=25
16E-	16g	16b-	4ee-
16E-	16g	16b-	.
16E-	16g	16b-	.
16E-	16g	16b-	.
16E-	16g	16b-	8gg
16E-	16g	16b-	.
16E-	16g	16b-	8bb-
16E-	16g	16b-	.
16D	16f	16b-	8.bb-
16D	16f	16b-	.
16D	16f	16b-	.
16D	16f	16b-	48ccc
.	.	.	48bb-
.	.	.	48aa
16D	16f	16b-	4bb-
16D	16f	16b-	.
16D	16f	16b-	.
16D	16f	16b-	.
=26	=26	=26	=26
16C	16e-	16b-	8eee-
16C	16e-	16b-	.
16C	16e-	16a-	8aa-
16C	16e-	16a-	.
16c	16e-	16e-	8aa-
16c	16e-	16e-	.
16c	16e-	16e-	8aa-
16c	16e-	16e-	.
16B-	16d	16d	4aa-
16B-	16d	16d	.
16B-	16d	16d	.
16B-	16d	16d	.
16B-	16d	16g	4gg
16B-	16d	16g	.
16B-	16d	16g	.
16B-	16d	16g	.
=27	=27	=27	=27
16A-	16c	16g	4ccc
16A-	16c	16g	.
16A-	16c	16g	.
16A-	16c	16g	.
16A-	16c	16f	8aa-
16A-	16c	16f	.
16A-	16c	16f	8ff
16A-	16c	16f	.
16G	16B-	16f	4bb-
16G	16B-	16f	.
16G	16B-	16f	.
16G	16B-	16f	.
16G	16B-	16e-	8gg
16G	16B-	16e-	.
16G	16B-	16e-	8ee-
16G	16B-	16e-	.
=28	=28	=28	=28
16F	16A-	16d	24dd
.	.	.	24ee-
16F	16A-	16d	.
.	.	.	24ff
16F	16f	16d	[8a-
16F	16f	16d	.
16D	16B-	16f	8a-]
16D	16B-	16f	.
16E-	16B-	16e-	8g
16E-	16B-	16e-	.
16BB-	16B-	16d	4f
16BB-	16d	16b-	.
16BB-	16d	16b-	.
16BB-	16d	16b-	.
16AA-	16f	16dd	4r
16AA-	16f	16dd	.
16AA-	16f	16dd	.
16AA-	16f	16dd	.
=29	=29	=29	=29
16GG	16e-	16ee-	4bb-
16GG	16e-	16ee-	.
16GG	16e-	16ee-	.
16GG	16e-	16ee-	.
16GG	16e-	16dd-	8ee-
16GG	16e-	16dd-	.
16GG	16e-	16dd-	8ddd-
16GG	16e-	16b-	.
16AA-	16e-	16cc	16ccc
16AA-	16e-	16cc	16ccc
16AA-	16e-	16cc	16bb
16AA-	16e-	16cc	16ccc
16AA-	16e-	16cc	16r
16AA-	16e-	16cc	16aa-
16AA-	16e-	16cc	16gg
16AA-	16e-	16cc	16aa-
=30	=30	=30	=30
16AA-	16e-	16cc	16r
16AA-	16e-	16cc	16ee-
16AA-	16e-	16cc	16dd
16AA-	16e-	16cc	16ee-
16AA-	16e-	16cc	16r
16AA-	16e-	16cc	16cc
16AA-	16e-	16cc	16b-
16AA-	16e-	16cc	16a-
16GG	16e-	16b-	16r
16GG	16e-	16b-	16bb-
16GG	16e-	16b-	16aa
16GG	16e-	16b-	16bb-
16GG	16e-	16b-	16r
16GG	16e-	16b-	16gg
16GG	16e-	16b-	16ff#
16GG	16e-	16b-	16gg
=31	=31	=31	=31
16GG	16e-	16b-	16r
16GG	16e-	16b-	16ee-
16GG	16e-	16b-	16dd
16GG	16e-	16b-	16ee-
16GG	16e-	16b-	16r
16GG	16e-	16b-	16b-
16GG	16e-	16b-	16a-
16GG	16e-	16b-	16g
16FF	16e-	16a-	16r
16FF	16e-	16a-	16aa-
16FF	16e-	16a-	16gg
16FF	16e-	16a-	16aa-
16BB-	16d	16a-	16r
16BB-	16d	16a-	16ccc
16BB-	16d	16g	16bb-
16BB-	16d	16f	16aa-
=32	=32	=32	=32
16E-	16e-	16g	16r
16E-	16B-	16g	16gg
16E-	16B-	16g	16ff#
16E-	16B-	16g	16gg
16E-	16B-	16g	16r
16E-	16B-	16g	16bb-
16E-	16B-	16g	16aa-
16E-	16B-	16g	16gg
16AA-	16f	16c	16r
16AA-	16f	16c	16ff
16AA-	16f	16c	16ee
16AA-	16f	16c	16ff
16AA	16c	16f	8.ccc
16AA	16c	16f	.
16AA	16c	16f	.
16AA	16c	16f	16ee-
=33	=33	=33	=33
16BB-	16B-	16f	4ee-
16BB-	16B-	16f	.
16BB-	16B-	16f	.
16BB-	16B-	16f	.
16BB-	16B-	16f	4dd
16BB-	16B-	16f	.
16BB-	16B-	16f	.
16BB-	16B-	16f	.
16BB-	16F	16d	2A-
16BB-	16F	16d	.
16BB-	16F	16d	.
16BB-	16F	16d	.
16BB-	16F	16d	.
16BB-	16F	16d	.
16BB-	16F	16d	.
16BB-	16F	16d	.
=34	=34	=34	=34
16E-	16e-	16e-	4G
16E-	16e-	16e-	.
16E-	16e-	16e-	.
16E-	16e-	16e-	.
16GG	16B-	16e-	4ee-
16GG	16B-	16e-	.
16GG	16B-	16e-	.
16GG	16B-	16e-	.
16AA-	16c	16e-	4f
16AA-	16c	16e-	.
16AA-	16c	16e-	.
16AA-	16c	16e-	.
16BB-	16F	16d	4aa-
16BB-	16F	16d	.
16BB-	16F	16d	.
16BB-	16F	16d	.
=35	=35	=35	=35
16E-	16E-	16e-	8gg
16E-	16E-	16e-	.
16E-	16E-	16e-	32bb-
.	.	.	32gg
16E-	16E-	16e-	32ff
.	.	.	32ee-
16BB-	16B-	16e-	4ff
16BB-	16B-	16e-	.
16BB-	16B-	16d	.
16BB-	16B-	16d	.
16E-	16E-	16e-	4ee-
16E-	16E-	16e-	.
16E-	16E-	16e-	.
16E-	16E-	16e-	.
16E-	16e-	16a-	8.ccc
16E-	16e-	16a-	.
16E-	16e-	16a-	.
16E-	16a-	16f	16ddd
=36	=36	=36	=36
16E-	16g	16g	16eee-
16E-	16e-	16g	16bb-
16E-	16e-	16f	16aa-
16E-	16e-	16e-	16gg
16E-	16e-	16a-	8.ccc
16E-	16e-	16a-	.
16E-	16e-	16a-	.
16E-	16a-	16f	16ddd
16E-	16g	16g	16eee-
16E-	16e-	16g	16bb-
16E-	16e-	16g	16gg
16E-	16e-	16e-	16ee-
16BB-	16B-	16e-	4ff
16BB-	16B-	16e-	.
16BB-	16B-	16d	.
16BB-	16B-	16d	.
=37	=37	=37	=37
[1E-	4e-	4e-	4ee-
.	2.r	4r	4r
.	.	2c	[2a-
=38	=38	=38	=38
1E-_	2r	2.B-	4a-]
.	.	.	4g
.	[2e-	.	2cc
.	.	[4A-	.
=39	=39	=39	=39
1E-]	2.e-]	4A-]	2b-
.	.	4G	.
.	.	4c	4b-
.	4f	4d	4a-
=40	=40	=40	=40
4E-	4e-	16e-	16g
.	.	16e-	16g
.	.	16f	16a-
.	.	16g	16b-
2.r	2.r	16a-	16cc
.	.	16b-	16dd
.	.	16cc	16ee-
.	.	16dd	16ff
.	.	8ee-	8gg
.	.	8r	8r
.	.	32dd	32ff
.	.	16.cc	16.ee-
.	.	32b-	32dd
.	.	16.a-	16.cc
=41	=41	=41	=41
2BB-	2B-	4g	4b-
.	.	4f	4a-
8EE-	8E-	8e-	8g
8C	8G	8e-	8e-
8AA-	8A-	8f	8f
8BB-	8F	8d	8d
=42	=42	=42	=42
8E-	8E-	8e-	8e-
8r	8r	8r	8r
8EE-	8E-	8G 8e-	8e- 8G
8r	8r	8r	8r
4EE-	4E-	4e- 4G	4e- 4G
4r	4r	4r	4r
==	==	==	==
*-	*-	*-	*-
!!!RWG1: This file contains only pitch and duration data.
!!!RWG2: Transposing instruments are not transposed.
!!!RWG3: Spines may have incompatible meters.
!!!RWG4: Durations of rests and tied notes may be interpreted.
!!!RWG: Key is interpreted using the Humdrum key tool.
!!!GTL: 10 Divertimentos
!!!OPT: La chasse
!!!AFT: stage1
!!!END: 1997/04/15
!!!KEY: 3891621646
!!!EMD: Converted from MuseData to Humdrum Dec 16, 2000, by Andreas Kornstaedt using muse2kern.
!!!EMD: Manual editing by Craig Sapp, Nov 2001
